Dominus_Dark_Funeral/22/mimes/extension.svg

<svg xmlns="http://www.w3.org/2000/svg" width="24" height="24" version="1"><path d="M9.391 1.001a2.603 2.603 0 0 0-2.615 2.603c0 .892.464 1.687 1.161 2.151v.452H2.144A1.149 1.149 0 0 0 .996 7.368v5.622A2.572 2.572 0 0 1 3.012 12a2.603 2.603 0 0 1 0 5.206 2.59 2.59 0 0 1-2.016-.99v5.622c0 .635.513 1.16 1.148 1.16h5.622a2.59 2.59 0 0 1-.978-2.028 2.603 2.603 0 0 1 5.206 0c0 .82-.403 1.552-1.002 2.029h5.622a1.161 1.161 0 0 0 1.161-1.161v-5.793h.464a2.603 2.603 0 0 0 2.164 1.161 2.603 2.603 0 0 0 0-5.206c-.905 0-1.687.464-2.164 1.149h-.452v-5.78a1.149 1.149 0 0 0-1.149-1.162h-5.792v-.452a2.603 2.603 0 0 0 1.16-2.15A2.603 2.603 0 0 0 9.405 1z" fill="#e6e6e6"/></svg>

<?xml version="1.0" encoding="UTF-8" standalone="no"?>
<svg
   xmlns:dc="http://purl.org/dc/elements/1.1/"
   xmlns:cc="http://creativecommons.org/ns#"
   xmlns:rdf="http://www.w3.org/1999/02/22-rdf-syntax-ns#"
   xmlns:svg="http://www.w3.org/2000/svg"
   xmlns="http://www.w3.org/2000/svg"
   xmlns:sodipodi="http://sodipodi.sourceforge.net/DTD/sodipodi-0.dtd"
   xmlns:inkscape="http://www.inkscape.org/namespaces/inkscape"
   width="24"
   height="24"
   version="1"
   id="svg4"
   sodipodi:docname="extension.svg"
   inkscape:version="0.92.4 (5da689c313, 2019-01-14)">
  <metadata
     id="metadata10">
    <rdf:RDF>
      <cc:Work
         rdf:about="">
        <dc:format>image/svg+xml</dc:format>
        <dc:type
           rdf:resource="http://purl.org/dc/dcmitype/StillImage" />
        <dc:title></dc:title>
      </cc:Work>
    </rdf:RDF>
  </metadata>
  <defs
     id="defs8" />
  <sodipodi:namedview
     pagecolor="#ffffff"
     bordercolor="#666666"
     borderopacity="1"
     objecttolerance="10"
     gridtolerance="10"
     guidetolerance="10"
     inkscape:pageopacity="0"
     inkscape:pageshadow="2"
     inkscape:window-width="1112"
     inkscape:window-height="480"
     id="namedview6"
     showgrid="false"
     inkscape:zoom="9.8333333"
     inkscape:cx="1.0677966"
     inkscape:cy="12"
     inkscape:window-x="0"
     inkscape:window-y="25"
     inkscape:window-maximized="0"
     inkscape:current-layer="svg4" />
  <path
     d="M 9.391,1.001 A 2.603,2.603 0 0 0 6.776,3.604 c 0,0.892 0.464,1.687 1.161,2.151 V 6.207 H 2.144 A 1.149,1.149 0 0 0 0.996,7.368 V 12.99 A 2.572,2.572 0 0 1 3.012,12 a 2.603,2.603 0 0 1 0,5.206 2.59,2.59 0 0 1 -2.016,-0.99 v 5.622 c 0,0.635 0.513,1.16 1.148,1.16 h 5.622 a 2.59,2.59 0 0 1 -0.978,-2.028 2.603,2.603 0 0 1 5.206,0 c 0,0.82 -0.403,1.552 -1.002,2.029 h 5.622 a 1.161,1.161 0 0 0 1.161,-1.161 v -5.793 h 0.464 a 2.603,2.603 0 0 0 2.164,1.161 2.603,2.603 0 0 0 0,-5.206 c -0.905,0 -1.687,0.464 -2.164,1.149 H 17.787 V 7.369 A 1.149,1.149 0 0 0 16.638,6.207 H 10.846 V 5.755 A 2.603,2.603 0 0 0 12.006,3.605 2.603,2.603 0 0 0 9.405,1 Z"
     id="path2"
     inkscape:connector-curvature="0"
     style="fill:#e6e6e6" />
</svg>
